my_site/img/services/03.svg

<svg width="48" height="48" viewBox="0 0 48 48" fill="none" xmlns="http://www.w3.org/2000/svg">
<g clip-path="url(#clip0)">
<path d="M29.1416 13.624H41.1395V17.0693H29.1416V13.624Z" fill="white"/>
<path d="M29.1416 22.2373H41.1395V25.6826H29.1416V22.2373Z" fill="white"/>
<path d="M29.1416 30.8506H41.1395V34.2959H29.1416V30.8506Z" fill="white"/>
<path d="M44.5674 5.01123H3.43187C2.52299 5.01214 1.65161 5.37542 1.00893 6.02135C0.366264 6.66727 0.00481376 7.54307 0.00390625 8.45655V39.4644C0.00481376 40.3779 0.366264 41.2537 1.00893 41.8996C1.65161 42.5455 2.52299 42.9088 3.43187 42.9097H44.5674C45.4761 42.9084 46.3472 42.5449 46.9898 41.8991C47.6324 41.2533 47.994 40.3777 47.9953 39.4644V8.45655C47.9944 7.54307 47.633 6.66727 46.9903 6.02135C46.3477 5.37542 45.4763 5.01214 44.5674 5.01123ZM3.43187 8.45655H22.2856V39.4644H3.43187V8.45655ZM25.7136 39.4644V8.45655H44.5674L44.5708 39.4644H25.7136Z" fill="white"/>
</g>
<defs>
<clipPath id="clip0">
<rect width="48" height="37.92" fill="white" transform="translate(0 5)"/>
</clipPath>
</defs>
</svg>

<svg width="48" height="48" fill="none" xmlns="http://www.w3.org/2000/svg"><g clip-path="url(#clip0)" fill="#fff"><path d="M29.142 13.624h11.997v3.445H29.142v-3.445zm0 8.613h11.997v3.446H29.142v-3.446zm0 8.613h11.997v3.446H29.142V30.85z"/><path d="M44.567 5.011H3.432a3.423 3.423 0 00-2.423 1.01A3.458 3.458 0 00.004 8.457v31.007c0 .914.362 1.79 1.005 2.436a3.423 3.423 0 002.423 1.01h41.135a3.424 3.424 0 002.423-1.01 3.459 3.459 0 001.005-2.436V8.457c0-.914-.362-1.79-1.005-2.436a3.422 3.422 0 00-2.423-1.01zM3.432 8.457h18.854v31.007H3.432V8.457zm22.282 31.007V8.457h18.853l.004 31.007H25.714z"/></g><defs><clipPath id="clip0"><path fill="#fff" transform="translate(0 5)" d="M0 0h48v37.92H0z"/></clipPath></defs></svg>
